X:30
T:Ingemunddansen
C:Olav Christer Rosseb\oo
S:Vidar Skrede
M:2/4
L:1/8
Q:1/4=120
K:G
%P:A
[V:1](D G)A |:"G"B2 d2 | "C"[E3c3] (B|"D"A)(D F)A | "G"[GB]D GA | B2 d2 |
[V:2](G, B,)A, |:G,2 (B,D) | [E3G,3] (E | D) A,2 (C | B,)(G, B,)A, | G,A, B,D |
[V:1]"C"[E3c3] (B | "D"A)(D F)A | "G"[GB]D "D"FA | "G"[G2B2] [G2(G,2] |[1 [G,)G] (D G)A :|]
[V:2][E3G,3] (e | D) A,2 (C | B,)(G, A,)C | [D2B,2] [D2(B,2] |[1 [B,)D](G, B,)A, :|]
%P:B
[V:1][2 [G,3G3] (D |: "C"E)(E/D/ E)("D"F | "G"G)(B A)(D | "C"E)(E/D/ E)("D"F | "G"G)(G D) (D |
[V:2][2 [D3B,3] (B, |: [CE]) [C2E2] ([EC] | B,)(G, A,)(B, | [CE]) [C2E2] ([EC] | B,)(A, G,) (B, |
[V:1]"C"E)(E/D/ E)("D"F | "G"G)(B "D"A) (A/c/ | "G"B)(G "D"A)F/A/ | "G"[G2B2] ([G2G,2] |[1 [G,3G3]) D :|[2 [G,3G3] z |]
[V:2][CE]) [C2E2] ([EC] | B,)(G, A,)(C | B,)(G, A,)(C | [B,2D2]) ([D2B,2] |[1 [B,3D3]) B, :|[2 [B,3D3] z|]

